X:171
T:17. SHEEP HILL (32 bar reels)
T:Flowers of Edinburgh, The
R:Reel
O:Scotland
M:4/4
K:G
(GE)|\
"G"D2DE G2GA|BGBd "C"cBAG|"D"FGFE DEFG|AFdF E2(EF)|\
"G"D2DE G2GA|
BABd efge|"C"dcBA "D"GFGA|"G"B2G2 G2::\
B2|\
"G"g2g2 gbag|"D"f2f2 fagf|
"Em"e2ef (gf)ed|"Em"B2e2 e2(ge)|\
"G"dBGB d2d2|"C"edef "G"g2(fe)|"C"dcBA "D"GFGA|"G"B2G2 G2:|
